tetrification/src/assets/images/navbar/dashboard.svg

<svg width="40" height="40" viewBox="0 0 40 40" fill="none" xmlns="http://www.w3.org/2000/svg">
<path d="M38.039 21.8133H35.5367C35.3256 21.8151 35.1171 21.8592 34.923 21.943C34.729 22.0267 34.5533 22.1485 34.4061 22.3012C34.2588 22.454 34.143 22.6347 34.0653 22.833C33.9876 23.0312 33.9495 23.243 33.9532 23.4562V38.3427C33.9609 38.7699 33.8022 39.1829 33.5113 39.4929C33.2204 39.8029 32.8206 39.985 32.3981 39.9999H26.1068C25.907 40.0018 25.7088 39.9637 25.5236 39.8877C25.3384 39.8117 25.17 39.6994 25.028 39.5573C24.8861 39.4151 24.7734 39.246 24.6965 39.0596C24.6196 38.8732 24.58 38.6732 24.58 38.4713V28.2993C24.58 28.0974 24.5404 27.8974 24.4635 27.711C24.3866 27.5246 24.2739 27.3555 24.1319 27.2133C23.99 27.0712 23.8215 26.9589 23.6364 26.8829C23.4512 26.8069 23.253 26.7688 23.0531 26.7707H16.5781C16.3782 26.7688 16.18 26.8069 15.9948 26.8829C15.8097 26.9589 15.6412 27.0712 15.4993 27.2133C15.3573 27.3555 15.2446 27.5246 15.1677 27.711C15.0908 27.8974 15.0512 28.0974 15.0512 28.2993V38.4713C15.0512 38.6732 15.0116 38.8732 14.9347 39.0596C14.8578 39.246 14.7451 39.4151 14.6032 39.5573C14.4612 39.6994 14.2928 39.8117 14.1076 39.8877C13.9224 39.9637 13.7242 40.0018 13.5244 39.9999H7.2331C6.8106 39.985 6.41081 39.8029 6.11991 39.4929C5.82901 39.1829 5.67029 38.7699 5.67796 38.3427V23.4562C5.68171 23.2442 5.64409 23.0335 5.56725 22.8362C5.4904 22.6389 5.37585 22.4588 5.23012 22.3062C5.08439 22.1537 4.91035 22.0316 4.71793 21.947C4.52551 21.8624 4.31849 21.817 4.10869 21.8133H1.59219C1.26994 21.8011 0.958244 21.694 0.69545 21.5051C0.432655 21.3162 0.230221 21.0539 0.113051 20.7503C-0.00411913 20.4467 -0.0309151 20.1151 0.0359592 19.7963C0.102834 19.4775 0.260462 19.1854 0.489453 18.956L17.6384 0.940769C17.9196 0.643423 18.2575 0.406754 18.6317 0.24506C19.0059 0.083365 19.4086 0 19.8156 0C20.2226 0 20.6253 0.083365 20.9995 0.24506C21.3737 0.406754 21.7116 0.643423 21.9928 0.940769L39.1417 18.9846C39.3616 19.2153 39.5113 19.5049 39.573 19.8191C39.6346 20.1333 39.6056 20.4588 39.4894 20.7568C39.3732 21.0548 39.1748 21.3128 38.9176 21.5001C38.6605 21.6874 38.3555 21.7961 38.039 21.8133Z" fill="#E2D2FF"/>
</svg>

<svg xmlns="http://www.w3.org/2000/svg" width="40" height="40" fill="none"><path fill="#E2D2FF" d="M38.039 21.813h-2.502a1.582 1.582 0 0 0-1.13.488 1.615 1.615 0 0 0-.454 1.155v14.887c.008.427-.15.84-.442 1.15-.29.31-.69.492-1.113.507h-6.291a1.498 1.498 0 0 1-1.079-.443 1.531 1.531 0 0 1-.448-1.086V28.3a1.543 1.543 0 0 0-.448-1.086 1.512 1.512 0 0 0-1.079-.442h-6.475a1.498 1.498 0 0 0-1.079.442 1.53 1.53 0 0 0-.448 1.086v10.172a1.543 1.543 0 0 1-.448 1.086 1.513 1.513 0 0 1-1.079.443h-6.29a1.604 1.604 0 0 1-1.114-.507c-.291-.31-.45-.723-.442-1.15V23.456a1.63 1.63 0 0 0-.448-1.15 1.599 1.599 0 0 0-1.121-.493H1.592a1.643 1.643 0 0 1-.897-.308 1.67 1.67 0 0 1-.582-.755 1.688 1.688 0 0 1 .376-1.794L17.64.941A3.012 3.012 0 0 1 19.815 0a2.984 2.984 0 0 1 2.177.94l17.149 18.045a1.678 1.678 0 0 1 .347 1.772 1.669 1.669 0 0 1-.571.743 1.643 1.643 0 0 1-.879.313Z"/></svg>
